X:1132
T:Vallenciennes March.
M:2/4
L:1/16
Q:1/4=80
I: :: ||
N:bar 8 is printed |g2a>a a4:| (no sharp on the g)
Z:Jack Campin * www.campin.me.uk * 2009
K:D
 d4      e4    | f3``g   a2`d2 |g2``f2``e2`d2 | cdcB  AB`cA |\
 d4      e4    | f3``g   a2`d'2|d'c'ba  c'ba^g|^g2a>a a4   :|
 a2f2````a2`f2 | ba`gf   g2`e2 |g2``e2``g2`e2 | agfe  f2`A2 |
.dd(cd) .ee(de)|.ff(ef) .gg(fg)|aa``d'a ag`gf | e2e>e e>AB>c|
 d4      e4    | f3``g   a2`d2 |g2``f2``e2`d2 | cdcB  AB`cA |\
 d4      e4    | f3``g   a2`d'2|ag``fe  fe`dc | d2d>d d4   |]
<end>
<start>
